icons-rebrand/svg/add-option-bold.svg

<svg width="32" height="32" viewBox="0 0 32 32" fill="none" xmlns="http://www.w3.org/2000/svg">
<path d="M29 6H26V3C26 2.73478 25.8946 2.48043 25.7071 2.29289C25.5196 2.10536 25.2652 2 25 2C24.7348 2 24.4804 2.10536 24.2929 2.29289C24.1054 2.48043 24 2.73478 24 3V6H21C20.7348 6 20.4804 6.10536 20.2929 6.29289C20.1054 6.48043 20 6.73478 20 7C20 7.26522 20.1054 7.51957 20.2929 7.70711C20.4804 7.89464 20.7348 8 21 8H24V11C24 11.2652 24.1054 11.5196 24.2929 11.7071C24.4804 11.8946 24.7348 12 25 12C25.2652 12 25.5196 11.8946 25.7071 11.7071C25.8946 11.5196 26 11.2652 26 11V8H29C29.2652 8 29.5196 7.89464 29.7071 7.70711C29.8946 7.51957 30 7.26522 30 7C30 6.73478 29.8946 6.48043 29.7071 6.29289C29.5196 6.10536 29.2652 6 29 6Z" fill="#0F0F0F"/>
<path d="M22.3441 13.098C22.2257 13.0409 22.0972 13.0078 21.966 13.0006C21.8348 12.9933 21.7034 13.0122 21.5795 13.056C21.4556 13.0997 21.3416 13.1676 21.244 13.2557C21.1465 13.3437 21.0673 13.4502 21.0111 13.569L19.1941 17.382C19.0711 17.64 19.0041 17.92 18.9991 18.205V20H16.9991V14C16.9991 13.7348 16.8937 13.4804 16.7062 13.2929C16.5187 13.1053 16.2643 13 15.9991 13C15.7339 13 15.4795 13.1053 15.292 13.2929C15.1044 13.4804 14.9991 13.7348 14.9991 14V20H12.9991V18.17C12.9894 17.8975 12.9237 17.6299 12.8061 17.384L10.4561 12.456C10.2251 11.8937 10.0808 11.2996 10.0281 10.694C9.93412 9.83141 10.0232 8.95873 10.2897 8.13297C10.5561 7.30722 10.9937 6.54698 11.5741 5.90197C12.1401 5.28735 12.8302 4.79996 13.5988 4.47207C14.3673 4.14417 15.1967 3.98326 16.0321 3.99997C16.9112 3.99445 17.7809 4.1815 18.5801 4.54797C18.8209 4.65936 19.0961 4.67053 19.3452 4.57901C19.5942 4.48749 19.7967 4.30079 19.9081 4.05997C20.0195 3.81916 20.0306 3.54395 19.9391 3.2949C19.8476 3.04586 19.6609 2.84336 19.4201 2.73197C18.3369 2.2372 17.1579 1.98727 15.9671 1.99997C14.8636 1.98859 13.7701 2.21019 12.7581 2.65029C11.746 3.09039 10.8383 3.73908 10.0941 4.55397C9.33104 5.40745 8.75385 6.41032 8.39921 7.49886C8.04457 8.5874 7.92023 9.7378 8.03409 10.877C8.10909 11.701 8.30909 12.509 8.62909 13.272L11.0001 18.205L11.0101 25.057C11.0114 26.3805 11.5385 27.6494 12.4753 28.5843C13.4121 29.5193 14.682 30.0438 16.0056 30.0425C17.3292 30.0411 18.598 29.5141 19.5329 28.5773C20.4679 27.6404 20.9924 26.3705 20.9911 25.047L20.9981 18.245L22.8161 14.431C22.93 14.1916 22.9442 13.9168 22.8557 13.6669C22.7673 13.417 22.5832 13.2124 22.3441 13.098ZM19.0001 22V24.002H13.0001V22H19.0001ZM16.0001 28.002C15.3786 28.0122 14.7701 27.8237 14.2632 27.464C13.7563 27.1042 13.3776 26.592 13.1821 26.002H18.8191C18.6235 26.5919 18.2447 27.104 17.7378 27.4638C17.231 27.8235 16.6225 28.012 16.0011 28.002H16.0001Z" fill="#0F0F0F"/>
</svg>

<svg width="32" height="32" viewBox="0 0 32 32" fill="none" xmlns="http://www.w3.org/2000/svg"><path d="M29 6h-3V3a1 1 0 0 0-2 0v3h-3a1 1 0 1 0 0 2h3v3a1 1 0 1 0 2 0V8h3a1 1 0 1 0 0-2z" fill="#0F0F0F"/><path d="M22.344 13.098a.996.996 0 0 0-1.333.471l-1.817 3.813c-.123.258-.19.538-.195.823V20h-2v-6a1 1 0 0 0-2 0v6h-2v-1.83a1.986 1.986 0 0 0-.193-.786l-2.35-4.928a6.008 6.008 0 0 1-.428-1.762 6.166 6.166 0 0 1 1.546-4.792A5.9 5.9 0 0 1 16.032 4a6.022 6.022 0 0 1 2.548.548 1 1 0 1 0 .84-1.816A8.103 8.103 0 0 0 15.967 2a7.844 7.844 0 0 0-5.873 2.554 8.255 8.255 0 0 0-2.06 6.323c.075.824.275 1.632.595 2.395L11 18.205l.01 6.852a4.99 4.99 0 0 0 9.981-.01l.007-6.802 1.818-3.814a1.001 1.001 0 0 0-.472-1.333zM19 22v2.002h-6V22h6zm-3 6.002a2.918 2.918 0 0 1-2.818-2h5.637a2.919 2.919 0 0 1-2.818 2z" fill="#0F0F0F"/></svg>
